X:1
T:Winterreise, D.911
T:Frühlingstraum
T:Winterreise, D.911
T:11. Frühlingstraum
T:Franz Schubert
T:Wilhelm Müller
T:OpenScore (CC0)
T:OpenScore (CC0)
T:OpenScore (CC0)
T:OpenScore (CC0)
T:OpenScore (CC0)
T:OpenScore (CC0)
C:Franz Schubert
Z:Wilhelm Müller
Z:OpenScore (CC0)
%%score 1 { ( 2 4 ) | 3 }
L:1/8
Q:1/4=60
M:6/8
K:A
V:1 treble nm="Singstimme\nVoice"
V:2 treble nm="Pianoforte"
V:4 treble 
V:3 treble 
V:1
"^Etwas bewegt" z | z6 | z6 | z6 | z2 z z2!p! E | E3/2 F/ E c2 c |{B} A2 A z2 A | %7
w: ||||Ich|träum- te von bun- ten|Blu- men, so|
 B3/2 c/ B e3/2 f/ e | c2 z z2 A | A3/2 G/ F FA d | (c2 e) A z G | PF3/2 ^E/ F PG3/2 F/ G | %12
w: wie sie wohl blü- hen im|Mai; ich|träum- te von grü- * nen|Wie- * sen, von|lus- sti- gem Vo- gel- ge-|
 Ace- e d/c/B/A/ | G3/2 F/ F d3/2 G/ G | A2 z z[Q:1/4=90] !fermata!z!mf!"^Schnell" B | B2 B B2 =c | %16
w: schrei, _ _ _ von _ _ _|lus- sti- gem Vo- gel- ge-|schrei, Und|als die Häh- ne|
 B2 E z2 B | B2 B ^c>B c | d2 z z2 d | d2 d d2 _e | d2 =G z2 d | =e3/2 e/ e =f3/2 e/ e | %22
w: kräh- ten da|ward mein Au- * ge|wach; da|war es kalt und|fin- ster, es|schrie- en die Ra- ben vom|
 A2 z z2 A | _B2 B d2 B |{_B} A2 A z2 e | e E E =f3/2 e/ e | A2 z !fermata!z2 z || %27
w: Dach, da|war es kalt und|fin- ster es|schrie- en die Ra- ben vom|Dach.|
[M:2/4]"^Langsam."[Q:1/4=35] z4 | z2 z A | d d c c | e2 d c |{c} B B/ B/ c/e/ e/d/ | c2 z c | %33
w: |Doch|an den Fen- ster-|schei- ben, wer|mal- te die Blät- * ter _|da? doch|
 c/B/ B B c | A2 E c |{c} B B/ B/ d c | A2 z A | A/=F/ F F F/ A/ | E E z E | =G =F/ A/ d =f | %40
w: an _ den Fens- ster-|schei- ben, wer|mal- te die Blät- ter|da? Ihr|lacht _ wohl ü- ber den|Träu- mer, der|Blu- men im Win- ter|
 e2 z =c | B B/ B/ d =c | A2 z2 |"^Wie oben."[Q:1/4=60] z4 ||[M:6/8] z6 | z6 | z6 | z6 | z4 z E | %49
w: sah, der|Blu- men im Win- ter|sah?||||||Ich|
 E3/2 F/ E c2 c |{B} A2 A z2 A | B>c B e>f e | c2 z2 z A | A>G F F A d | (c2 e) A z G | %55
w: träum- te von Lieb' um|Lie- be, von|ei- * ner schö- * nen|Maid, von|Her- * zen und _ von|Küs- * sen, von|
"^(   )" PF3/2 ^E/ F"^(   )" PG>F G | Ace- e d/c/B/A/ | G3/2 F/ F d>G G | %58
w: Won- ne und Se- * lig|keit, _ _ _ von _ _ _|Won- ne und Se- * lig-|
 A2 z z !fermata!z!mf!"^Schnell"[Q:1/4=90] B | B2 B B2 =c | B2 E z2 B | B2 B ^c>B c | d2 z2 z d | %63
w: keit. Und|als die Häh- ne|kräh- ten, da|ward mein Her- * ze|wach, nun|
 d2 d d2 _e | d2 G z2 d | =e3/2 e/ e =f2 e | A2 z2 z A | _B2 B d2 B |{_B} A2 A z2 e | %69
w: sitz' ich hier al-|lei- ne und|den- ke dem Trau- me|nach, nun|sitz' ich hier al-|lei- ne und|
 e3/2 E/ E =f2 e | A2 z !fermata!z2 z ||[M:2/4]"^Langsam"[Q:1/4=35] z4 | z2 z A | d d c c | %74
w: den- ke dem Trau- me|nach,||Die|Au- gen schliess' ich|
 e2 d c |{c} B3/2 B/ c/e/ e/d/ | c2 z c | c/B/ B B c | A2 E c |{c} B3/2 B/ d c | A2 z A | %81
w: wie- der, noch|schlägt das Herz _ so _|warm, die|Au- * gen schliess' ich|wie- der, noch|schlägt das Herz so|warm. Wann|
 A/=F/ F F F/ A/ | E E z E | =G =F/ A/ d =f/ f/ | e2 z =c | B B/ B/ d =c/ c/ | A2 z2 | z4 | z4 |] %89
w: grünt _ ihr Blät- ter am|Fens- ter? wann|halt' ich mein Lieb- chen im|Arm? wann|halt' ich mein Lieb- chen im|Arm?|||
V:2
!pp! e | (e>fe){e} c'2 c' | (b2 a) z2 g | (Pf>^ef) (Pg>fg) | a2 z z2 z |!p! (CEA) (CEA) | %6
 (CFA) (CFA) | (DFB) (DEG) | (CEA) (cAE) | (DFA) (DFA) | (CEA) (CEA) | (DFB) (DEB) | (CEA) (CEA) | %13
 (DFB) (B,ED) | (CEc) A !fermata!z z |!mf! [EB] z z [EA] z z | [EB] z!f! (3e/!>(!e'/e/ e'2!>)! z | %17
!p! [EB] z z [E^c] z z | [Dd] z!f! (3d/!>(!d'/d/ d'2!>)! z |!p! [=Gd] z z [G=c] z z | %20
 [=Gd] z!f! (3G/!>(!=g/G/ g2!>)!!ff! [DAd] | [EA=ce]2 z [^GBe^g]2 z | %22
 [A=cea]2!>(! (([A,B,^D=F]!>)! [A,=CE]2)) z |!p! ((([=D=F_B]6 | %24
 [=CEA]2)))!>(! ([A-=B^d=f]!>)! [A=ce]2) z | [^G,B,DE]6 | A,/A/=C/=c/E/e/ [Aa] !fermata!z z || %27
[M:2/4]!pp! z/ (A/-[Aa]) z/ (A/-[Aa]) | z/ ([A-^c]/[Aca]) z/ ([A-e]/[Aea]) | %29
 z/ ([A-d]/[Ada]) z/ ([A-c]/[Aca]) | z/ ([Ae]/-[Aea]) z/ ([Ada]/z/[Aca]/) | %31
 z/ (A/-[Aa]) z/ (E/-[Ee]) | z/ (E/-[Ee]) z/ (E/-[Ee]) | z/ (E/-[Ee]) z/ (E/-[Ee]) | %34
 z/ (E/-[Ee]) z/ (E/-[Ee]) | z/ (E/-[Ee]) z/ (E/-[Ee]) | z/ (E/-[Ee]) z/ (E/-[Ee]) | %37
!pp! z/ ([=FA]/-[FA=f]) z/ ([FA]/-[FAf]) |"_dim." z/ ([EA]/-[EAe]) z/ ([EA]/-[EAe]) | %39
 z/ ([=FA]/-[FA=f]) z/ ([FA]/-[FAf]) | z/ ([EA]/-[EAe]) z/ ([EA]/-[EAe]) | %41
 z/!<(! (d/B/d/!<)!!>(! (=f)[e^g])!>)! | [Aa]2 z/"_dim." (A,/-[A,A]) | %43
 z/ (A,/-[A,A]) z/ (A,/-[A,A]) ||[M:6/8] z (.A,.^C .E.A.c) |!pp! (e>fe){e} c'2 c' | (b2 a) z2 g | %47
 Pf>^ef Pg>fg | a2 z4 |!p! (CEA) (CEA) | (CFA) (CFA) | (DFB) (DEG) | (CEA) (cAE) | (DFA) (DFA) | %54
 (CEA) (CEA) | (DFB) (DEB) | (CEA) (CEA) | (DFB) (B,ED) | (CEc) A !fermata!z z | %59
!mf! [EB] z2 [EA] z2 | [EB] z!f! (3e/!>(!e'/e/ e'2!>)! z |!p! [EB] z2 [E^c] z2 | %62
 [Dd] z!f! (3d/!>(!d'/d/ d'2!>)! z |!p! [=Gd] z2 [G=c] z2 | %64
 [=Gd] z!f! (3G/!>(!=g/G/!>)! g2!ff! [DAd] | [EA=ce]2 z [^GBe^g]2 z | %66
 [A=cea]2 ([A,B,^D=F]!>(! [A,=CE]2) z!>)! |!p! ((([=D=F_B]6 | %68
 [=CEA]2)))!>(! (([AB^d=f]!>)! [A=ce]2)) z | [^G,B,DE]6 | A,/A/=C/=c/E/e/ [Aa] !fermata!z z || %71
[M:2/4]!pp! z/ (A/-[Aa]) z/ (A/-[Aa]) | z/ ([A^c]/-[Aca]) z/ ([Ae]/-[Aea]) | %73
 z/ ([Ad]/-[Ada]) z/ ([Ac]/-[Aca]) | z/ ([A=e]/-[Aea]) z/ ([Ada]/z/[Aca]/) | %75
 z/ (A/-[Aa]) z/ (E/-[Ee]) | z/ (E/-[Ee]) z/ (E/-[Ee]) | z/ (E/-[Ee]) z/ (E/-[Ee]) | %78
 z/ (E/-[Ee]) z/ (E/-[Ee]) | z/ (E/-[Ee]) z/ (E/-[Ee]) | z/ (E/-[Ee]) z/ (E/-[Ee]) | %81
!pp! z/ ([=FA]/-[FA=e]) z/ ([FA]/-[FAf]) |"_dim." z/ ([EA]/-[EAe]) z/ ([EA]/-[EAe]) | %83
 z/ ([=FA]/-[FA=f]) z/ ([FA]/-[FAf]) | z/ ([EA]/-[EAe]) z/ ([EA]/-[EAe]) | %85
 z/!<(! (d/B/d/)!<)!!<(!!>(!!>(! (=f!<)!!>)![e^g])!>)! | [Aa]2"_dim." z/ ((A,/[A,A])) | %87
 z/ ((A,/[A,A])) z/ ((A,/[A,A])) | !arpeggio![A,=CEA]4 |] %89
V:3
 z | ([A,C]E).A ([A,C]E).A | ([F,C]F).A ([F,C]F).[C^EB] | ([D,D]F).B ([E,D]E).B | ([A,C]Ec A) z z | %5
[K:bass] A, z z A, z z | F, z z F, z z | D, z z E, z z | A,, z z A, z z | %9
 [A,,F,A,] z z [A,,F,A,] z z | [A,,E,A,] z z [A,,E,A,] z z | D, z z E, z z | A, z z C, z z | %13
 D, z z E, z z | [A,,E,A,]3- [A,,E,A,] !fermata!z z | [=G,B,] z z [F,A,] z z | %16
 [=G,B,] z[K:treble] (([F^A=c] [=GB]2)) z |[K:bass] [=G,B,] z z [A,,G,] z z | %18
 [D,=F,] z[K:treble] (([E^G_B] [=FA]2)) z |[K:bass] [_B,D] z z [A,=C] z z | %20
 [_B,D] z (([A,,^C,_E,] [_B,,D,]2)) [=F,A,] | [=E,A,=C]2 z [E,B,D]2 z | %22
 A,,,/A,,/A,,,/A,,/A,,,/A,,/ A,,,/A,,/A,,,/A,,/A,,,/A,,/ | %23
 A,,,/A,,/A,,,/A,,/A,,,/A,,/ A,,,/A,,/A,,,/A,,/A,,,/A,,/ | %24
 A,,,/A,,/A,,,/A,,/A,,,/A,,/ A,,,/A,,/A,,,/A,,/A,,,/A,,/ | %25
!f! A,,,/A,,/A,,,/A,,/A,,,/A,,/ A,,,/A,,/A,,,/A,,/A,,,/A,,/ | %26
!ff! [A,,,A,,][=C,,=C,][E,,E,] [A,,A,] !fermata!z z ||[M:2/4]"_ligato" (.[A,,A,]2 .[^C,A,]2 | %28
 .[E,A,]2 .[=G,A,]2) | (.[F,A,]2 .[=E,A,]2 | .[=G,A,]2 .[F,A,].[E,A,]) | [D,A,]2 ([E,A,][E,G,]) | %32
 [A,,E,A,]2 ([A,C][E,A,]) | [D,G,]2 (.[D,G,].[E,G,]) | [C,A,]2 (.[C,A,].[E,A,]) | %35
 [D,G,]2 (.[F,G,].[E,G,]) | [C,A,]2 [C,A,]2 | [D,A,]2 [D,A,]2 | [=C,A,]2 [C,A,]2 | %39
 [D,A,]2 [D,A,]2 | [=C,A,]2 [C,A,]2 | (([=F,A,]2 [E,^G,]2)) | [A,,A,]2 .[A,,,A,,]2 | %43
 .[A,,,A,,]2 .[A,,,A,,]2 ||[M:6/8] [A,,,A,,]4- [A,,,A,,]2 |[K:treble] ([A,C]E).A ([A,C]E).A | %46
 ([F,C]F).A ([F,C]F).[C^EB] | ([D,D]F).B ([E,D]E).B | ([A,C]Ec A) z2 |[K:bass] A, z2 A, z2 | %50
 F, z2 F, z2 | D, z2 E, z2 | A,, z2 A, z2 | [A,,F,A,] z2 [A,,F,A,] z2 | [A,,E,A,] z2 [A,,E,A,] z2 | %55
 D, z2 E, z2 | A, z2 C, z2 | D, z2 E, z2 | [A,,E,A,]3- [A,,E,A,] !fermata!z z | %59
 [=G,B,] z2 [F,A,] z2 | [=G,B,] z[K:treble] (([F^A=c] [=GB]2)) z |[K:bass] [=G,B,] z2 [A,,G,] z2 | %62
 [D,=F,] z[K:treble] (([E^G_B] [=FA]2)) z |[K:bass] [_B,D] z2 [A,=C] z2 | %64
 [_B,D] z (([A,,^C,_E,] [_B,,D,]2)) [=F,A,] | [=E,A,=C]2 z [E,B,D]2 z | %66
 A,,,/A,,/A,,,/A,,/A,,,/A,,/ A,,,/A,,/A,,,/A,,/A,,,/A,,/ | %67
 A,,,/A,,/A,,,/A,,/A,,,/A,,/ A,,,/A,,/A,,,/A,,/A,,,/A,,/ | %68
 A,,,/A,,/A,,,/A,,/A,,,/A,,/ A,,,/A,,/A,,,/A,,/A,,,/A,,/ | %69
!f! A,,,/A,,/A,,,/A,,/A,,,/A,,/ A,,,/A,,/A,,,/A,,/A,,,/A,,/ | %70
!ff! [A,,,A,,][=C,,=C,][E,,E,] [A,,A,] !fermata!z z ||[M:2/4]"_ligato" (.[A,,A,]2 .[^C,A,]2 | %72
 .[E,A,]2 .[=G,A,]2) | (.[F,A,]2 .[E,A,]2 | .[=G,A,]2 .[F,A,].[E,A,]) | [D,A,]2 ([E,A,][E,G,]) | %76
 [A,,E,A,]2 ([A,C][E,A,]) | [D,G,]2 (.[D,G,].[E,G,]) | [C,A,]2 (.[C,A,].[E,A,]) | %79
 [D,G,]2 (.[F,G,].[E,G,]) | [C,A,]2 [C,A,]2 | [D,A,]2 [D,A,]2 | [=C,A,]2 [C,A,]2 | %83
 [D,A,]2 [D,A,]2 | [=C,A,]2 [C,A,]2 | (([=F,A,]2 [E,^G,]2)) | [A,,A,]2 (.[A,,,A,,]2 | %87
 .[A,,,A,,]2 .[A,,,A,,]2) | !arpeggio![A,,,=C,,E,,A,,]4 |] %89
V:4
 x | x6 | x6 | x6 | x6 | x6 | x6 | x6 | x6 | x6 | x6 | x6 | x6 | x6 | (C3 C) x2 | x6 | x6 | x6 | %18
 x6 | x6 | x6 | x6 | x6 | x6 | x6 | x6 | x6 ||[M:2/4] x4 | x4 | x4 | x4 | x4 | x4 | x4 | x4 | x4 | %36
 x4 | x4 | x4 | x4 | x4 | x4 | x4 | x4 ||[M:6/8] x6 | x6 | x6 | x6 | x6 | x6 | x6 | x6 | x6 | x6 | %54
 x6 | x6 | x6 | x6 | C3 C x2 | x6 | x6 | x6 | x6 | x6 | x6 | x6 | x6 | x6 | x6 | x6 | x6 || %71
[M:2/4] x4 | x4 | x4 | x4 | x4 | x4 | x4 | x4 | x4 | x4 | x4 | x4 | x4 | x4 | x4 | x4 | x4 | x4 |] %89

